currency-brl.svg

<svg fill="currentColor" viewBox="0 0 24 24"><path d="M12 15h2c0 1.08 1.37 2 3 2s3-.92 3-2c0-1.1-1.04-1.5-3.24-2.03C14.64 12.44 12 11.78 12 9c0-1.79 1.47-3.31 3.5-3.82V3h3v2.18C20.53 5.69 22 7.21 22 9h-2c0-1.08-1.37-2-3-2s-3 .92-3 2c0 1.1 1.04 1.5 3.24 2.03C19.36 11.56 22 12.22 22 15c0 1.79-1.47 3.31-3.5 3.82V21h-3v-2.18C13.47 18.31 12 16.79 12 15M2 3h3.5A5.5 5.5 0 0 1 11 8.5c0 2.19-1.29 4.09-3.14 4.97L11.64 21H9.4l-3.52-7H4v7H2zm3.5 9A3.5 3.5 0 0 0 9 8.5 3.5 3.5 0 0 0 5.5 5H4v7z"/></svg>

<svg  viewBox="0 0 24 24" fill="currentColor"><path  d="M12,15H14C14,16.08 15.37,17 17,17C18.63,17 20,16.08 20,15C20,13.9 18.96,13.5 16.76,12.97C14.64,12.44 12,11.78 12,9C12,7.21 13.47,5.69 15.5,5.18V3H18.5V5.18C20.53,5.69 22,7.21 22,9H20C20,7.92 18.63,7 17,7C15.37,7 14,7.92 14,9C14,10.1 15.04,10.5 17.24,11.03C19.36,11.56 22,12.22 22,15C22,16.79 20.53,18.31 18.5,18.82V21H15.5V18.82C13.47,18.31 12,16.79 12,15M2,3H5.5A5.5,5.5 0 0,1 11,8.5C11,10.69 9.71,12.59 7.86,13.47L11.64,21H9.4L5.88,14H5.5L4,14V21H2V3M5.5,12A3.5,3.5 0 0,0 9,8.5A3.5,3.5 0 0,0 5.5,5H4V12H5.5Z"/></svg>
